X:16356
T:Tellings hopsa
S:Hans Ole
R:Hopsa
O:Denmark
M:2/4
L:1/8
K:D
D | B2 c/B/^A/B/ | G2D2 | B2 c/B/^A/B/ |ed cB |\
A2B/A/^G/A/ | F2D2 | A2B/A/^G/A/| fe dc |\
B2c/B/^A/B/ | G2D2 | B2c/B/^A/B/ | ed cB |\
A2B/A/^G/A/ | f3 e | dc BA | G2 z ::\
K:D
A|fA fA | aA fA | gA eA | fA dA | \
fA fA | aA fA | gA Bc | d2 z::\
K:G
d3 e | d2B2 | b2 ag | f2 z2 |\
c3d | c2A2 | fe dc | B3z |\
d3e | d2B2 | e3f | e2c2 | f3f | (3fed (3cBA |\
G2 [B2g2]:|**
